X:171
T:Lord, Enthroned in Heavenly Splendor
%%stretchlast false
M:6/4
L:1/4
K:G clef=C1
"^vi"[E,,E,G,B,] [E,,E,G,B,] "^vi¹"[G,,E,B,E]2 "^V/vi"[B,,^D,B,F]2 | "^vi"[E,B,G] [E,B,G] [E,B,EG]2 "^V/vi"[B,,B,^DF]2 | "^vi"[E,B,EG] [E,B,EG] "^vi¹"[G,,B,EB]2 "^ii"[A,,CEA] "^ii7"[A,,CEG] | "^vi"[B,,F,EF] "^V/vi"[B,,B,^DF] "^vi"[E,,G,E]4 | [E,,E,G,B,] [E,,E,G,B,] "^vi¹"[G,,E,B,E]2 "^V/vi"[B,,^D,B,F]2 | "^vi"[E,B,G] [E,B,G] [E,B,EG]2 "^V/vi"[B,,B,^DF]2 | "^vi"[E,B,EG] [E,B,EG] "^vi¹"[G,,B,EB]2 "^ii"[A,,CEA] "^ii7"[A,,CEG] | "^vi"[B,,F,EF] "^V/vi"[B,,B,^DF] "^vi"[E,,G,E]4 | [E,G,E] "^vii7³"[E,A,EF] "^vi"[E,B,EG]2 [E,G,B,E]2 | "^V/vi¹"[^D,B,F] "^vi"[E,B,EG] "^ii"[A,,CEA]2 "^V/vi"[B,,B,^DF]2 | "^vi"[E,G,B,G] "^V"[D,F,DA] "^I"[G,DB]2 [G,,G,B,G] [G,,G,DB] | "^ii7"[A,,G,Cc]/ [A,,G,CB]/ "^V"[D,F,DA] "^I"[G,,G,B,B]/ [G,,G,B,A]/ "^IV"[C,E,CG] "^vii°"[F,,A,CA]/ [F,,A,CG]/ "^vii°¹"[A,,A,CF]/ "^ii7"[A,,G,E]/ | "^V/vi"[B,,F,^DB]4 "^vi"[E,EG] [E,EG] | "^vi¹"[G,,B,EB]2 "^ii"[A,,CEA] "^ii7"[A,,CEG] "^vi"[B,,F,EF] "^V/vi"[B,,B,^DF] | "^vi"[E,,G,E]6 |]
